X:1
T:Suffer the Children to Come
T:Suffer the Children to Come
T:William Augustine Ogden
T:I. L. Mitchell, 1894
T:Public Domain Courtesy of the Cyber Hymnal™
T:Public Domain Courtesy of the Cyber Hymnal™
C:William Augustine Ogden
Z:Public Domain
Z:Courtesy of the Cyber Hymnal™
%%score ( 1 2 ) ( 3 4 )
L:1/8
Q:1/4=95
M:6/8
K:Ab
V:1 treble 
V:2 treble 
V:3 bass 
V:4 bass 
V:1
 [CA]2 [CA] [CA]2 [CA] | [Ec]2 [CA] [DF]3 | [CE][CE][CE] [DB][CA][B,G] | [CA]2 [DB] [Ec]2 z | %4
w: 1.~Hark! I hear my|Sav- ior say:|“Suf- fer the child- ren to|come to Me”;|
w: 2.~Tell them Je- sus|loves them all,|“Suf- fer the child- ren to|come to Me”;|
w: 3.~Take them gent- ly|by the hand,|“Suf- fer the child- ren to|come to Me”;|
 [CA]2 [CA] [CA]2 [CA] | [Ec]2 [CA] [DF]3 | [CE][CE][CE] [DB][CA][B,G] | [CA]3- [CA]2 z | %8
w: Do not turn the|lambs a- way,|“Suf- fer the child- ren to|come.” *|
w: Take them gent- ly|by the hand,|“Suf- fer the child- ren to|come.” *|
w: Lead them to the|bet- ter land,|“Suf- fer the child- ren to|come.” *|
 [Ec]2 [Ec] [Ec]2 [Ec] | [Fd]2 [Ec] ([Ec][DB]) z | [CA]2 [FA] [FA]2 [FA] | %11
w: Point them to the|Fa- ther’s throne, *|Speak to them in|
w: Oh, for- bid them|not, I pray, *|Let the child- ren|
w: Lead them with a|will- ing mind, *|Tell them of a|
 [Ac]2 [FA] ([FA][=EG]) z | F2 [DF] ([FA][EG])[DF] | [CE]2 [CE] ([EA]2 [FB]) | %14
w: tender- est tone, *|Je- sus calls * them|for His own, *|
w: come to- day, *|Hear the bless- * èd|Sav- ior say: *|
w: Sav- ior kind; *|They e- ter- * nal|life may find, *|
 [Ec][Ec][Ec] [DB][CA][B,G] | [CA]3- [CA]2 z ||"^Refrain" [Ec]2 [Ec] (ed)[Ec] | %17
w: “Suf- fer the child- ren to|come.” *||
w: “Suf- fer the child- ren to|come.” *|Do not turn * the|
w: “Suf- fer the child- ren to|come.” *||
 [EB]2 [Ec] [Ed]2 z | [EB]2 [EB] (dc)[DB] | [CA]2 [EB] [Ec]2 z | [DF]2 [DF] ([FA][EG])[DF] | %21
w: ||||
w: lambs a- way,|Pre- cious in * His|sight are they;|Teach them how * to|
w: ||||
 [CE]2 [CE] ([EA]2 [FB]) | [Ec][Ec][Ec] [DB][CA][B,G] | [CA]3- [CA]2 z |] %24
w: |||
w: watch and pray: *|“Suf- fer the child- ren to|come.” *|
w: |||
V:2
 x6 | x6 | x6 | x6 | x6 | x6 | x6 | x6 | x6 | x6 | x6 | x6 | x6 | x6 | x6 | x6 || x3 E2 x | x6 | %18
 x3 E2 x | x6 | x6 | x6 | x6 | x6 |] %24
V:3
 (A,,3 A,3) | (A,,3 D,3) | [E,A,][E,A,][E,A,] E,E,E, | [A,,E,]2 [A,,E,] [A,,A,]2 z | (A,,3 A,3) | %5
 (A,,3 D,3) | [E,A,][E,A,][E,A,] E,E,E, | [A,,E,]3- [A,,E,]2 z | %8
 [A,,A,]2 [A,,A,] [A,,A,]2 [A,,A,] | [A,,A,]2 [A,,A,] (A,G,) z | [F,A,]2 [F,C] [F,C]2 [F,C] | %11
 [F,C]2 [F,C] (CB,) z | [D,A,]2 [D,A,] [D,A,]2 [D,A,] | [A,,A,]2 [A,,A,] A,3 | %14
 [E,A,][E,A,][E,A,] E,E,E, | [A,,E,]3- [A,,E,]2 z || A,2 A, (CB,)A, | [E,G,]2 [E,A,] [E,B,]2 z | %18
 [E,G,]2 [E,G,] (B,A,)[E,G,] | [F,A,]2 [E,G,] A,2 z | [D,A,]2 [D,A,] [D,A,]2 [D,A,] | %21
 [A,,A,]2 [A,,A,] A,3 | [E,A,][E,A,][E,A,] E,E,E, | [A,,E,]3- [A,,E,]2 z |] %24
V:4
 x6 | x6 | x3 E,E,E, | x6 | x6 | x6 | x3 E,E,E, | x6 | x6 | x3 E,2 x | x6 | x3 C,2 x | x6 | %13
 x3 (C,2 D,) | x3 E,E,E, | x6 || A,2 A, A,2 A, | x6 | x3 E,2 x | x3 A,2 x | x6 | x3 (C,2 D,) | %22
 x3 E,E,E, | x6 |] %24

